Adwaita++/apps/symbolic/google-symbolic.svg

<svg height="16" viewBox="0 0 16 16" width="16" xmlns="http://www.w3.org/2000/svg" xmlns:xlink="http://www.w3.org/1999/xlink">
  <path d="m0 0h16v16h-16z" fill="none"/>
  <path d="m15.636 6.545h-7.454v3.091h4.291c-.4 1.964-2.073 3.091-4.291 3.091-2.618 0-4.727-2.109-4.727-4.727s2.109-4.727 4.727-4.727c1.127 0 2.145.4 2.945 1.054l2.328-2.327c-1.419-1.236-3.237-2-5.273-2-4.437 0-8 3.564-8 8s3.563 8 8 8c4 0 7.636-2.909 7.636-8 0-.473-.073-.982-.182-1.455z" fill="#474747"/>
</svg>

<svg xmlns="http://www.w3.org/2000/svg" style="isolation:isolate" width="16" height="16" viewBox="0 0 16 16">
 <defs>
  <style id="current-color-scheme" type="text/css">
   .ColorScheme-Text { color:#444; } .ColorScheme-Highlight { color:#5294e2; }
  </style>
  <linearGradient id="arrongin" x1="0%" x2="0%" y1="0%" y2="100%">
   <stop offset="0%" style="stop-color:#dd9b44"/>
   <stop offset="100%" style="stop-color:#ad6c16"/>
  </linearGradient>
  <linearGradient id="aurora" x1="0%" x2="0%" y1="0%" y2="100%">
   <stop offset="0%" style="stop-color:#09D4DF"/>
   <stop offset="100%" style="stop-color:#9269F4"/>
  </linearGradient>
  <linearGradient id="fitdance" x1="0%" x2="0%" y1="0%" y2="100%">
   <stop offset="0%" style="stop-color:#1AD6AB"/>
   <stop offset="100%" style="stop-color:#329DB6"/>
  </linearGradient>
  <linearGradient id="oomox" x1="0%" x2="0%" y1="0%" y2="100%">
   <stop offset="0%" style="stop-color:#efefe7"/>
   <stop offset="100%" style="stop-color:#8f8f8b"/>
  </linearGradient>
  <linearGradient id="rainblue" x1="0%" x2="0%" y1="0%" y2="100%">
   <stop offset="0%" style="stop-color:#00F260"/>
   <stop offset="100%" style="stop-color:#0575E6"/>
  </linearGradient>
  <linearGradient id="sunrise" x1="0%" x2="0%" y1="0%" y2="100%">
   <stop offset="0%" style="stop-color:#FF8501"/>
   <stop offset="100%" style="stop-color:#FFCB01"/>
  </linearGradient>
  <linearGradient id="telinkrin" x1="0%" x2="0%" y1="0%" y2="100%">
   <stop offset="0%" style="stop-color:#b2ced6"/>
   <stop offset="100%" style="stop-color:#6da5b7"/>
  </linearGradient>
  <linearGradient id="60spsycho" x1="0%" x2="0%" y1="0%" y2="100%">
   <stop offset="0%" style="stop-color:#df5940"/>
   <stop offset="25%" style="stop-color:#d8d15f"/>
   <stop offset="50%" style="stop-color:#e9882a"/>
   <stop offset="100%" style="stop-color:#279362"/>
  </linearGradient>
  <linearGradient id="90ssummer" x1="0%" x2="0%" y1="0%" y2="100%">
   <stop offset="0%" style="stop-color:#f618c7"/>
   <stop offset="20%" style="stop-color:#94ffab"/>
   <stop offset="50%" style="stop-color:#fbfd54"/>
   <stop offset="100%" style="stop-color:#0f83ae"/>
  </linearGradient>
  <clipPath id="_clipPath_gAfg5srIr2lMsxnBorkjUOkqxaK6nJmA">
   <rect width="16" height="16"/>
  </clipPath>
 </defs>
 <g clip-path="url(#_clipPath_gAfg5srIr2lMsxnBorkjUOkqxaK6nJmA)">
  <rect fill-opacity="0" width="16" height="16"/>
  <path style="fill:currentColor" class="ColorScheme-Text" d="M 15.636 6.545 L 8.182 6.545 L 8.182 9.636 L 12.473 9.636 C 12.073 11.6 10.4 12.727 8.182 12.727 C 5.564 12.727 3.455 10.618 3.455 8 C 3.455 5.382 5.564 3.273 8.182 3.273 C 9.309 3.273 10.327 3.673 11.127 4.327 L 13.455 2 C 12.036 0.764 10.218 0 8.182 0 C 3.745 0 0.182 3.564 0.182 8 C 0.182 12.436 3.745 16 8.182 16 C 12.182 16 15.818 13.091 15.818 8 C 15.818 7.527 15.745 7.018 15.636 6.545 Z"/>
 </g>
</svg>
